projects/oblique/icons/Industry.svg

<?xml version="1.0" encoding="UTF-8"?><svg id="a" xmlns="http://www.w3.org/2000/svg" viewBox="0 0 24 24"><path d="M16.6091,12.11165v-6.14062l-6.18066,6.1792c-.00586-2.37451-.00586-4.36914-.00586-4.36963v-1.81055l-4.32129,4.32129V.78499H1.24973l.00195,19.96045h21.49805V5.96956l-6.14062,6.14209ZM4.60129,2.28499v1.59521h-1.85138l-.00018-1.59521h1.85156ZM21.24973,19.24544H2.75168l-.00159-13.86523h1.8512v6.72168l.03418,1.77637,4.28809-4.28809c.00195,1.17236.00488,2.77393.01074,4.36816l.00684,1.80078,6.16797-6.16797v6.14355l6.14062-6.14307v9.65381Z"/></svg>

<svg xmlns="http://www.w3.org/2000/svg" viewBox="0 0 24 24"><title>Industry</title><path d="M16.6091,12.11165V5.971l-6.18066,6.1792c-.00586-2.37451-.00586-4.36914-.00586-4.36963V5.97L6.10129,10.29134V.785H1.24973l.00195,19.96045H22.74973V5.96956ZM4.60129,2.285V3.88021H2.74991L2.74973,2.285ZM21.24973,19.24544H2.75168L2.75009,5.38021h1.8512v6.72168l.03418,1.77637L8.92355,9.59017c.002,1.17236.00489,2.77393.01075,4.36816l.00683,1.80078,6.168-6.168V15.7347l6.14063-6.14307Z" fill="#171717"/></svg>
